X: 42
T:Return to Millto
R:Reel
C:trad.
M:C
L:1/8
Q:1/2=112
K:DDor
FE|:D2 (3DDD D2 ED|C2EC FCDC|D2 (3DDD D2 ED|CDEG cGED|
D2 (3FED D2 (3FED|C2EC FCDC|~F2FD ~G2 GE|CDEG cGED:|
K:D
|:d2de f2ed|cdef gece|d2de f2ed|BAGE EDD2|
d2de f2ed|cdef g2 (3gfe|f2fe d2dA|BAGE EDD2:|
